collections/phosporicons/regular/faders-horizontal.svg

<svg xmlns="http://www.w3.org/2000/svg" viewBox="0 0 256 256" width="20" height="20"><path fill="none" d="M0 0h256v256H0z"/><path fill="none" stroke="#000" stroke-linecap="round" stroke-linejoin="round" stroke-width="16" d="M135.999 171.993h-96m176 0h-48m-96-88l-32-.001m176 0l-112 .001m0-24v48m64 88v-48"/></svg>

<svg xmlns="http://www.w3.org/2000/svg" viewBox="0 0 256 256" width="20" height="20"><path fill="none" d="M0 0h256v256H0z"/><path fill="none" stroke="#000" stroke-linecap="round" stroke-linejoin="round" stroke-width="16" d="M136 172H40M216 172h-48M72 84H40M216 84H104M104 60v48M168 196v-48"/></svg>
